images/tower_communication.svg

<?xml version="1.0" encoding="UTF-8" standalone="no"?>
<svg xmlns:dc="http://purl.org/dc/elements/1.1/" xmlns:cc="http://creativecommons.org/ns#" xmlns:rdf="http://www.w3.org/1999/02/22-rdf-syntax-ns#" xmlns:svg="http://www.w3.org/2000/svg" xmlns="http://www.w3.org/2000/svg" xmlns:sodipodi="http://sodipodi.sourceforge.net/DTD/sodipodi-0.dtd" xmlns:inkscape="http://www.inkscape.org/namespaces/inkscape" id="svg4138" viewBox="0 0 14 14" height="14" width="14" version="1.1" sodipodi:docname="mast_communications.svg" inkscape:version="0.92.4 (5da689c313, 2019-01-14)">
  <sodipodi:namedview pagecolor="#ffffff" bordercolor="#666666" borderopacity="1" objecttolerance="10" gridtolerance="10" guidetolerance="10" inkscape:pageopacity="0" inkscape:pageshadow="2" inkscape:window-width="1881" inkscape:window-height="1051" id="namedview853" showgrid="false" inkscape:pagecheckerboard="true" inkscape:zoom="30.642857" inkscape:cx="6.7643768" inkscape:cy="6.1813213" inkscape:window-x="0" inkscape:window-y="0" inkscape:window-maximized="1" inkscape:current-layer="svg4138" />
  <metadata id="metadata4146">
    <rdf:RDF>
      <cc:Work rdf:about="">
        <dc:format>image/svg+xml</dc:format>
        <dc:type rdf:resource="http://purl.org/dc/dcmitype/StillImage" />
        <dc:title></dc:title>
      </cc:Work>
    </rdf:RDF>
  </metadata>
  <defs id="defs4144" />
  <path d="M 4,0.40625 C 2.23276,1.1855669 0.96875,2.9521023 0.96875,5 C 0.96875,7.047898 2.23276,8.814433 4,9.59375 V 8.4375 C 2.80447,7.746709 2,6.4881502 2,5 C 2,3.5118498 2.80447,2.2532914 4,1.5625 Z M 10,0.40625 V 1.5625 C 11.19553,2.2532914 12,3.5118498 12,5 C 12,6.4881502 11.19553,7.746709 10,8.4375 V 9.59375 C 11.76724,8.814433 13.03125,7.047898 13.03125,5 C 13.03125,2.9521023 11.76724,1.1855669 10,0.40625 Z M 5,2.1875 C 3.842954,2.6043642 3,3.7033306 3,5 C 3,6.2966694 3.842954,7.395636 5,7.8125 V 6.71875 C 4.403081,6.3740292 4,5.7435697 4,5 C 4,4.2564303 4.403081,3.6259708 5,3.28125 Z M 9,2.1875 V 3.28125 C 9.596919,3.6259708 10,4.2564303 10,5 C 10,5.7435697 9.596919,6.3740292 9,6.71875 V 7.8125 C 10.157046,7.395636 11,6.2966694 11,5 C 11,3.7033306 10.157046,2.6043642 9,2.1875 Z M 7,4 C 6.4022075,4 6,4.4692172 6,5 V 9 L 3.1132812,14 H 4.2675781 L 6,11 V 14 H 8 V 11 L 9.7324219,14 H 10.886719 L 8,9 V 5 C 8,4.5039063 7.5977925,4 7,4 Z" id="outline" style="opacity:0.5;fill:none;stroke:#ffffff;stroke-width:3;stroke-linecap:round;stroke-linejoin:round;stroke-miterlimit:4;stroke-dasharray:none;stroke-opacity:1" inkscape:connector-curvature="0" />
  <path id="mast-communication" d="M 4 0.40625 C 2.23276 1.1855669 0.96875 2.9521023 0.96875 5 C 0.96875 7.047898 2.23276 8.814433 4 9.59375 L 4 8.4375 C 2.80447 7.746709 2 6.4881502 2 5 C 2 3.5118498 2.80447 2.2532914 4 1.5625 L 4 0.40625 z M 10 0.40625 L 10 1.5625 C 11.19553 2.2532914 12 3.5118498 12 5 C 12 6.4881502 11.19553 7.746709 10 8.4375 L 10 9.59375 C 11.76724 8.814433 13.03125 7.047898 13.03125 5 C 13.03125 2.9521023 11.76724 1.1855669 10 0.40625 z M 5 2.1875 C 3.842954 2.6043642 3 3.7033306 3 5 C 3 6.2966694 3.842954 7.395636 5 7.8125 L 5 6.71875 C 4.403081 6.3740292 4 5.7435697 4 5 C 4 4.2564303 4.403081 3.6259708 5 3.28125 L 5 2.1875 z M 9 2.1875 L 9 3.28125 C 9.596919 3.6259708 10 4.2564303 10 5 C 10 5.7435697 9.596919 6.3740292 9 6.71875 L 9 7.8125 C 10.157046 7.395636 11 6.2966694 11 5 C 11 3.7033306 10.157046 2.6043642 9 2.1875 z M 7 4 C 6.4022075 4 6 4.4692172 6 5 L 6 9 L 3.1132812 14 L 4.2675781 14 L 6 11 L 6 14 L 8 14 L 8 11 L 9.7324219 14 L 10.886719 14 L 8 9 L 8 5 C 8 4.5039063 7.5977925 4 7 4 z " />
</svg>

<svg xmlns="http://www.w3.org/2000/svg" height="14" width="14">
    <path d="M4 .406C2.233 1.186.969 2.952.969 5 .969 7.048 2.233 8.814 4 9.594V8.438C2.804 7.747 2 6.487 2 5c0-1.488.804-2.747 2-3.438zm6 0v1.156c1.196.691 2 1.95 2 3.438 0 1.488-.804 2.747-2 3.438v1.156c1.767-.78 3.031-2.546 3.031-4.594 0-2.048-1.264-3.814-3.031-4.594zM5 2.187C3.843 2.604 3 3.704 3 5c0 1.297.843 2.396 2 2.813V6.718A1.97 1.97 0 014 5c0-.744.403-1.374 1-1.719zm4 0v1.094c.597.345 1 .975 1 1.719 0 .744-.403 1.374-1 1.719v1.093c1.157-.416 2-1.515 2-2.812s-.843-2.396-2-2.813zM7 4c-.598 0-1 .47-1 1v4l-2.887 5h1.155L6 11v3h2v-3l1.732 3h1.155L8 9V5c0-.496-.402-1-1-1z" opacity=".5" fill="none" stroke="#fff" stroke-width="3" stroke-linecap="round" stroke-linejoin="round"/>
    <path d="M4 .406C2.233 1.186.969 2.952.969 5 .969 7.048 2.233 8.814 4 9.594V8.438C2.804 7.747 2 6.487 2 5c0-1.488.804-2.747 2-3.438V.407zm6 0v1.156c1.196.691 2 1.95 2 3.438 0 1.488-.804 2.747-2 3.438v1.156c1.767-.78 3.031-2.546 3.031-4.594 0-2.048-1.264-3.814-3.031-4.594zM5 2.187C3.843 2.604 3 3.704 3 5c0 1.297.843 2.396 2 2.813V6.718A1.97 1.97 0 014 5c0-.744.403-1.374 1-1.719V2.187zm4 0v1.094c.597.345 1 .975 1 1.719 0 .744-.403 1.374-1 1.719v1.093c1.157-.416 2-1.515 2-2.812s-.843-2.396-2-2.813zM7 4c-.598 0-1 .47-1 1v4l-2.887 5h1.155L6 11v3h2v-3l1.732 3h1.155L8 9V5c0-.496-.402-1-1-1z"/>
</svg>
